X:1
Q:1/4=84
L:1/8
M:1/2
K:C clef=G2
V:1
%%MIDI program 56
Cz/2E7/16G7/4(5:4z/4|Gz/2G7/16G7/4(5:4z/4|GABc2-|(5:4c2z/2G7/4z/4|
Ez/2E7/16D7/4(5:4z/4|Ez/2E7/16F7/4(5:4z/4|Gz/2G7/16E7/4(5:4z/4|C14/4z/2|
cz/2c7/16B7/4(5:4z/4|^Az/2^A7/16A7/4(5:4z/4|^Gz/2^G7/16G7/4(5:4z/4|c14/4z/2|
Az/2B7/16c7/4(5:4z/4|Ez/2F7/16G7/4(5:4z/4|FEDC2-|(5:4C2z2z/2|
Ez/2G7/16c7/4(5:4z/4|cz/2c7/16c7/4(5:4z/4|cz/2d7/16e2-|e3/4z/4d7/8z/8c7/4(5:4z/4|
cz/2c7/16c7/4(5:4z/4|Ez/2A7/16G7/4(5:4z/4|FEDC2-|(5:4C2z2z/2|
Gz/2G7/16G7/4(5:4z/4|G7/8z/8d7/8z/8c7/8z/8B7/8z/8|A7/8z/8B7/8z/8c2-|(5:4c2z/2G7/4z/4|
Ez/2G7/16Gz/2F7/16|F7/8z/8A7/8z/8A7/8z/8G7/8z/8|Bz/2A7/16G2-|Gz/2F7/16E7/4(5:4z/4|
Gz/2G7/16G7/4(5:4z/4|G7/8z/8d7/8z/8c7/8z/8B7/8z/8|A7/8z/8B7/8z/8c7/8z/8G7/8z/8|e14/4(5:4z/2|
d7/8z/8c7/8z/8B7/8z/8c7/16B7/16|^A7/8z/8B7/8z/8d7/4(5:4z/4|cz/2A7/16G7/4(5:4z/4|z4|
Gz/2G7/16G7/4(5:4z/4|Gz/2G7/16G7/4(5:4z/4|Gz/2^G7/16^A7/4(5:4z/4|^d14/4z/2|
Gz/2^A7/16^Az/2^G7/16|^G7/8z/8c7/8z/8c7/8z/8^A7/8z/8|dz/2c7/16^A2-|^Az/2^G7/16G7/4(5:4z/4|
Gz/2G7/16^G7/8z/8G-|(5:4Gz/4G7/8z/8^G7/8z/8G-|(5:4Gz/4G7/8z/8c2-|c3/4z/4d7/8z/8^d7/4(5:4z/4|
cz/2c7/16c7/8z/8^D7/8z/8|^D7/8z/8^D7/8z/8F7/4(5:4z/4|^Dz/2F7/16G7/4(5:4z/4|B7/4z/4c7/4z/4|
d7/4(5:4z/4^d7/8z/8c7/8z/8|B7/8z/8c7/8z/8d7/4(5:4z/4|cz/2c7/16G7/4(5:4z/4|z4|
Cz/2E7/16G7/4(5:4z/4|Gz/2G7/16G7/4(5:4z/4|GABc2-|(5:4c2z/2G7/4z/4|
Ez/2E7/16D7/4(5:4z/4|Ez/2E7/16F7/4(5:4z/4|Gz/2G7/16E7/4(5:4z/4|C14/4z/2|
cz/2c7/16B7/4(5:4z/4|^Az/2^A7/16A7/4(5:4z/4|^Gz/2^G7/16G7/4(5:4z/4|c14/4z/2|
Az/2B7/16c7/4(5:4z/4|Ez/2F7/16G7/4(5:4z/4|FEDC2-|(5:4C2z2z/2|
Ez/2G7/16c7/4(5:4z/4|cz/2c7/16c7/4(5:4z/4|cz/2d7/16e2-|e3/4z/4d7/8z/8c7/4(5:4z/4|
cz/2c7/16c7/4(5:4z/4|Ez/2A7/16G7/4(5:4z/4|FEDC2-|(5:4C2z/4
L:1/8
M:1/2
K:C clef=F4
V:2
%%MIDI program 58
z2C,,7/4z/4|G,,7/4(5:4z/4C,,7/4z/4|G,,7/4z/4C,,7/4(5:4z/4|G,,7/4z/4C,7/4z/4|
C,z/2E,7/16G,7/4(5:4z/4|G,7/4z/4G,,7/4z/4|G,,z/2G,,7/16C,7/8z/8C,,7/8z/8|E,,7/8z/8G,,7/8z/8C,7/4(5:4z/4|
A,7/4z/4E,7/4z/4|G,7/4(5:4z/4D,7/4z/4|F,7/4z/4C,7/4(5:4z/4|C7/4z/4^F,,7/4z/4|
z2G,,7/4(5:4z/4|G,,7/4z/4G,7/4z/4|G,,7/4(5:4z/4C,,7/8zz/8|C7/4(5:4z/4G,7/4z/4|
E,7/4z/4C,z/2C,7/16|E,z/2G,7/16C7/4(5:4z/4|A,7/4z/4E,z/2E,7/16|E,7/8z/8E,7/8z/8A,7/4(5:4z/4|
^G,7/4z/4G,7/4z/4|G,,7/4(5:4z/4G,7/4z/4|G,7/4z/4C,7/4(5:4z/4|C,,7/4z2z/4|
z2B,,2-|(5:4B,,2z/2G,,2-|G,,2z/2C,7/8z/8C,,7/8z/8|E,,7/8z/8G,,7/8z/8C,7/4(5:4z/4|
C,,7/4z/4G,,7/4z/4|G,7/4(5:4z/4G,,7/4z/4|G,z/2B,,7/16C,7/4(5:4z/4|C7/4z/4G,,z/2G,7/16|
E,z/2C,7/16B,,2-|(5:4B,,2z/2G,,2-|G,,2z/2C,7/4(5:4z/4|Cz/2B,7/16A,7/4(5:4z/4|
C,7/4z/4D,7/4z/4|D,7/4(5:4z/4D,7/4z/4|D,7/4z/4G,,7/4(5:4z/4|G,z/2G,7/16G,7/4(5:4z/4|
z2^D,,7/8z|^A,,15/16z^D,,7/8zz/8|^A,,7/8zz/8^D,,7/8zz/8|^A,,7/8zz/8^D,,7/8z|
^A,,7/8zz/8F,7/4(5:4z/4|^G,7/4z/4^A,,7/4z/4|^G,7/4(5:4z/4^D,,7/8z|^A,,z^D,,7/8zz/8|
^A,,7/8zz/8D,7/4(5:4z/4|G,7/4z/4B,,7/4z/4|G,7/4(5:4z/4C,7/4z/4|G,7/4z/4G,,7/4(5:4z/4|
z2^G,,2-|^G,,2z/2^G,,2-|(5:4^G,,2z/2G,7/4z/4|F,7/4(5:4z/4^D,7/4z/4|
B,,7/4z/4C,2-|(5:4C,2z/2^G,,7/4z/4|^G,7/4(5:4z/4G,7/4z/4|G,,z/2G,,7/16G,,7/4(5:4z/4|
z2C,,7/4z/4|G,,7/4(5:4z/4C,,7/4z/4|G,,7/4z/4C,,7/4(5:4z/4|G,,7/4z/4C,7/4z/4|
C,z/2E,7/16G,7/4(5:4z/4|G,7/4z/4G,,7/4z/4|G,,z/2G,,7/16C,7/8z/8C,,7/8z/8|E,,7/8z/8G,,7/8z/8C,7/4(5:4z/4|
A,7/4z/4E,7/4z/4|G,7/4(5:4z/4D,7/4z/4|F,7/4z/4C,7/4(5:4z/4|C7/4z/4^F,,7/4z/4|
z2G,,7/4(5:4z/4|G,,7/4z/4G,7/4z/4|G,,7/4(5:4z/4C,,7/8zz/8|C7/4(5:4z/4G,7/4z/4|
E,7/4z/4C,z/2C,7/16|E,z/2G,7/16C7/4(5:4z/4|A,7/4z/4E,z/2E,7/16|E,7/8z/8E,7/8z/8A,7/4(5:4z/4|
^G,7/4z/4G,7/4z/4|G,,7/4(5:4z/4G,7/4z/4|G,7/4z/4C,7/4(5:4z/4|C,,7/4
L:1/8
M:1/2
K:C clef=F4
V:3
%%MIDI program 42
z4|G,,,7/4z2(5:4z/4|G,,,7/4z2z/4|G,,,7/4(5:4z/4C,,7/4z/4|
C,,z/2E,,7/16G,,7/4(5:4z/4|G,,7/4z/4G,,,7/4z/4|G,,,z/2G,,,7/16C,,7/8zz/8|z4|
A,,7/4(5:4z/4E,,7/4z/4|G,,7/4z/4D,,7/4(5:4z/4|F,,7/4z/4C,,7/4z/4|C,7/4(5:4z/4[^F,C,^D,]7/4z/4|
z4|z4|z2[G,,C,]7/8zz/8|C,7/4(5:4z/4G,,7/4z/4|
E,,7/4z/4C,,z/2C,,7/16|E,,z/2G,,7/16C,7/4(5:4z/4|A,,7/4z/4E,,z/2[B,^G,E]7/16|[^G,B,E]7/8z/8[B,^G,E]7/8z/8A,,7/4(5:4z/4|
^G,,7/4z/4G,,7/4z/4|z4|G,,7/4(5:4z/4[E,G,]7/4z/4|C,7/4z2(5:4z/4|
z4|z4|z4|z4|
z2G,,,7/4(5:4z/4|G,,7/4z/4G,,,7/4z/4|G,,zC,,7/4(5:4z/4|[G,E,]7/4z2z/4|
z4|z4|z2C,,7/4(5:4z/4|C,z/2B,,7/16A,,7/4(5:4z/4|
C,,7/4z/4D,,7/4z/4|D,,7/4(5:4z/4D,,7/4z/4|D,,7/4z/4G,,,7/4(5:4z/4|z4|
z4|z4|z4|z4|
z2F,,7/4(5:4z/4|[^A,D]7/4z/4^A,,,7/4z/4|[^A,D]7/4z2(5:4z/4|z4|
z2D,,7/4z/4|[F,B,D,]7/4(5:4z/4B,,,7/4z/4|[D,B,F,]7/4z/4C,,7/4(5:4z/4|G,,7/4z/4G,,,7/4z/4|
z4|z4|z2G,,7/4(5:4z/4|F,,7/4z/4^D,,7/4z/4|
B,,,7/4(5:4z/4C,,2-|C,,2z/2^G,,,7/4(5:4z/4|^G,,7/4z/4G,,7/4z/4|G,,,z/2G,,,7/16G,,,7/4(5:4z/4|
z4|G,,,7/4z2z/4|G,,,7/4z2(5:4z/4|G,,,7/4z/4C,,7/4z/4|
C,,z/2E,,7/16G,,7/4(5:4z/4|G,,7/4z/4G,,,7/4z/4|G,,,z/2G,,,7/16C,,7/8zz/8|z4|
A,,7/4(5:4z/4E,,7/4z/4|G,,7/4z/4D,,7/4(5:4z/4|F,,7/4z/4C,,7/4z/4|C,7/4(5:4z/4[^F,C,^D,]7/4z/4|
z4|z4|z2[G,,C,]7/8zz/8|C,7/4(5:4z/4G,,7/4z/4|
E,,7/4z/4C,,z/2C,,7/16|E,,z/2G,,7/16C,7/4(5:4z/4|A,,7/4z/4E,,z/2[B,^G,E]7/16|[^G,B,E]7/8z/8[B,^G,E]7/8z/8A,,7/4(5:4z/4|
^G,,7/4z/4G,,7/4z/4|z4|G,,7/4(5:4z/4[E,G,]7/4z/4|C,7/4
L:1/8
M:1/2
K:C clef=G2
V:4
%%MIDI program 41
z2[GG,C]7/4(5:4z/4|[GG,C]z/2[CG,G]7/16[G,GC]7/4(5:4z/4|[CGG,][A,A][B,B][C-c-]2|(5:3[C-c-G][C-c-G][G-Cc]/4[G]3/8[G,G]7/4(5:4z/4|
[G,E]z/2[G,E]7/16D7/4(5:4z/4|Ez/2E7/16F7/4(5:4z/4|[DG]z/2[DG]7/16Ez/2G,7/16|E,14/4(5:4z/2|
[ECc]z/2[ECc]7/16[EBB,]7/4(5:4z/4|[^A^A,E]z/2[^A^A,E]7/16[A,DA]7/4(5:4z/4|[^G,^GD]z/2[^G,^GD]7/16[G,CG]7/4(5:4z/4|[GcC]7/4z/4[A,CA]7/4z/4|
[A,A]z/2[B,B]7/16[GcC]7/4(5:4z/4|zz/2F7/16[B,G]7/4(5:4z/4|FE[G,D][E,C]7/8zz/8|z4|
z4|z4|z4|z4|
z4|z4|z4|z4|
z2G7/4(5:4z/4|[D-G]7/8[D-]/8[d-D][D-c]7/8[D-]/8(5:4[B-D]|[D-A]7/8[D-]/8[B-D][cCG]7/4(5:4[c-]/4|[C-G-c]2[CG]/4z/4[G,G]7/4(5:4z/4|
Cz/2G7/16Gz/2F7/16|F7/8z/8A7/8z/8A7/8z/8G7/8z/8|Bz/2A7/16G2-|Gz/2F7/16E7/4(5:4z/4|
[EG]z/2[GE]7/16z2|[D-G]7/8[D-]/8(5:4[d-D][D-c]7/8[D-]/8[B-D]|[D-A]7/8[D-]/8(5:4[B-D][cC]7/8zz/8|[e-G][e-]/2[e-E^G]7/16(5:4[E-A-e]2[EA]/4z/4|
[dA]7/8z/8c7/8z/8[D-B]7/8[D-]/8[D-c]7/16[D-B]7/16|[D-^A]7/8[D-]/8(5:3[B-D][B]/2[dAD]7/4z/4|[cAC]z/2[CA]7/16[DB,]7/4(5:4z/4|gz/2g7/16g7/4(5:4z/4|
gz/2[g^A]7/16g7/4(5:4z/4|gz/2g7/16g7/4(5:4z/4|gz/2^g7/16^a7/4(5:4z/4|^d'14/4z/2|
Gz/2^A7/16^Az/2^G7/16|^G7/8z/8c7/8z/8c7/8z/8^A7/8z/8|dz/2c7/16^A2-|^Az/2^G7/16G7/4(5:4z/4|
[Gg]z/2[Gg]7/16[^G^g]7/8z/8[G-g-]|(5:4[Gg]z/4[Gg]7/8z/8[^g^G]7/8z/8[G-g-]|(5:4[Gg]z/4[Gg]7/8z/8[c-][c-G]7/8[c-]/8|[G-c]3/4[G-]/4(5:4[d-G][^d-][G-^D-^d]|
[^Dc]z/2[^Dc]7/16[c^D]7/8z/8^D7/8z/8|^D7/8z/8^D7/8z/8F7/4(5:4z/4|^Dz/2F7/16[DG]7/4(5:4z/4|[GB]7/4z/4[cC]7/4z/4|
[Gd]7/4(5:4z/4[G-^d]7/8[G-]/8[G-c]7/8[G-]/8|[G-B]7/8[G-]/8(5:3[c-G][c]/2[d^FD]7/4z/4|[D^Fd]z/2[Dd^F]7/16[DG]7/4(5:4z/4|[Gg]z/2[Gg]7/16[Gg]7/4(5:4z/4|
z2[GCG,]7/4z/4|[CGG,]z/2[CG,G]7/16[CG,G]7/4(5:4z/4|[CGG,][A,A][B,B][C-c-]2|(5:3[C-c-G][C-c-G][G-Cc]/4[G]3/8[G,G]7/4(5:4z/4|
[CG,]z/2[CG,]7/16B,7/4(5:4z/4|Ez/2E7/16F7/4(5:4z/4|[GB,]z/2[B,G]7/16Cz/2G,7/16|E,14/4(5:4z/2|
[ECc]z/2[ECc]7/16[EBB,]7/4(5:4z/4|[^A^A,E]z/2[^A^A,E]7/16[A,DA]7/4(5:4z/4|[^G,^GD]z/2[^G,^GD]7/16[G,CG]7/4(5:4z/4|[GcC]7/4z/4[A,CA]7/4z/4|
[A,A]z/2[B,B]7/16[GcC]7/4(5:4z/4|zz/2F7/16[B,G]7/4(5:4z/4|FE[G,D]E,7/8z|z4|
z4|z4|z4|z4|
z4|z4|z4|z(5:4z
L:1/8
M:1/2
K:C clef=G2
V:5
%%MIDI program 48
z4|z4|z4|z4|
z4|z4|z4|z4|
z4|z4|z4|z4|
z4|z4|z4|[Ec]z/2[Ec]7/16[ce]z/2[ce]7/16|
[Ee]z/2[Gg]7/16[cgc']7/4(5:4z/4|[gc'c]z/2[cgc']7/16[gc'c]7/4(5:4z/4|[ac'c]z/2[dd']7/16[e'-e-b-]2|[e'eb]3/4z/4[dbd']7/8z/8[cc'a]7/4(5:4z/4|
[^fcc']z/2[c^fc']7/16[c'gc]7/4(5:4z/4|[Ec]z/2[Aa]7/16[Gg]7/4(5:4z/4|fedc7/4(5:4z/4|[egc']7/4z2z/4|
z4|z4|z4|z4|
z4|z4|z4|z4|
z4|z4|z4|z4|
z4|z4|z4|z4|
z4|z4|z4|z4|
z4|z4|z4|z4|
z4|z4|z4|z4|
z4|z4|z4|z4|
z4|z4|z4|z4|
z4|z4|z4|z4|
z4|z4|z4|z4|
z4|z4|z4|z4|
z4|z4|z4|z4|
z2c'7/4(5:4z/4|c'z/2c'7/16c'7/4(5:4z/4|c'z/2d'7/16e'2-|e'3/4z/4d'7/8z/8c'7/4(5:4z/4|
c'z/2c'7/16c'7/4(5:4z/4|z4|z4|[eg]7/4
L:1/8
M:1/2
K:C clef=F4
V:6
%%MIDI program 71
z4|z4|z4|z4|
z4|z4|z4|z4|
z4|z4|z4|z4|
z4|z4|z4|z4|
z4|z4|z4|z4|
z4|z4|z4|z4|
z4|z4|z4|z4|
z4|z4|z4|z4|
z4|z4|z4|z4|
z4|z4|z4|z4|
z2z[^A,G,^D,]7/8z/8|z[^D,G,^A,]7/8zz/8[^D,G,^A,]7/8z/8|z[G,^A,^D,]7/8zz/8[G,^A,^D,]7/8z/8|z[^D,G,^A,]7/8zz/8[^D,G,^A,]7/8z/8|
z[^A,G,^D,]7/8z2z/8|z4|z2z[G,^D,^A,]7/8z/8|z[^A,G,^D,]7/8zz/8[^D,^A,G,]7/8z/8|
z[^D,^A,G,]7/8z2|z4|z4|z4|
z4|z4|z4|z4|
z4|z4|z4|z4|
z4|z4|z4|z4|
z4|z4|z4|z4|
z4|z4|z4|z4|
z4|z4|z4|z4|
z4|z4|z4|z4|
z4|z4|z4|z(5:4z
L:1/8
M:1/2
K:C clef=G2
V:7
%%MIDI program 57
z4|z4|z4|z4|
z4|z4|z4|z4|
z4|z4|z4|z4|
z4|z4|z4|z4|
z4|z4|z4|z4|
z4|z4|z4|z4|
z4|z4|z4|z4|
z4|z4|z4|z4|
z4|z4|z4|z4|
z4|z4|z4|z4|
z4|z4|z4|z4|
z4|z4|z4|z4|
z4|z4|z4|z4|
z4|z4|z4|z4|
z4|z4|z4|z4|
z4|z4|z4|z4|
z4|z4|z4|z4|
z4|z4|z4|z4|
z4|z4|z4|Ez/2E7/16Gz/2G7/16|
Ez/2G7/16c7/4(5:4z/4|cz/2c7/16c7/4(5:4z/4|cz/2d7/16e2-|e3/4z/4d7/8z/8c7/4(5:4z/4|
cz/2c7/16c7/4(5:4z/4|Ez/2A7/16G7/4(5:4z/4|zz/2GE7/4(5:4z/4|c7/4
L:1/8
M:1/2
K:C clef=G2
V:8
%%MIDI program 56
z4|z4|z4|z4|
z4|z4|z4|z4|
z4|z4|z4|z4|
z4|z4|z4|z4|
z4|z4|z4|z4|
z4|z4|z4|z4|
z4|z4|z4|z4|
z4|z4|z4|z4|
z4|z4|z4|z4|
z4|z4|z4|z4|
z4|z4|z4|z4|
z4|z4|z4|z4|
z4|z4|z4|z4|
z4|z4|z4|z4|
z4|z4|z4|z4|
z4|z4|z4|z4|
z4|z4|z4|z4|
z4|z4|z4|z4|
z4|z4|z4|Gz/2G7/16cz/2c7/16|
ez/2e7/16e7/4(5:4z/4|ez/2e7/16e7/4(5:4z/4|ez^g2-|^g3/4z/4g7/8z/8e7/4(5:4z/4|
^dz/2^d7/16e7/4(5:4z/4|czB7/4z/4|(5:3dcz3/4c7/4z/4|z(5:4z
L:1/8
M:1/2
K:C clef=F4
V:9
%%MIDI program 41
Cz/2E7/16E7/4(5:4z/4|Ez/2E7/16E7/4(5:4z/4|Ez2zz/2|(5:3EEEE7/4z/4|
Cz/2C7/16B,7/4(5:4z/4|Cz/2C7/16D7/4(5:4z/4|B,z/2B,7/16Cz/2D7/16|C14/4(5:4z/2|
Az/2A7/16^G7/4(5:4z/4|Gz/2G7/16^F7/4(5:4z/4|Fz/2F7/16E7/4(5:4z/4|E7/4z/4^D7/4z/4|
z2E7/4(5:4z/4|EzD7/4z/4|(5:3DCz2z3/4|z4|
z4|z4|z4|z4|
z4|z4|z4|z4|
z4|F7/4(5:4z/4F7/4z/4|F7/4z/4E7/4(5:4z/4|E7/4z/4E7/4z/4|
Ez/2E7/16Ez/2D7/16|D7/8z/8F7/8z/8F7/8z/8E7/8z/8|Gz/2F7/16E2-|Ez/2D7/16C7/4(5:4z/4|
z2G7/4z/4|F7/4(5:4z/4F7/4z/4|F7/4z/4E7/8z/8G7/8z/8|Ez/2D7/16C7/4(5:4z/4|
E7/8zz/8G2-|(5:4G2z/2^F7/4z/4|^Fz/2^F7/16G7/4(5:4z/4|Gz/2G7/16G7/4(5:4z/4|
Gz/2G7/16G7/4(5:4z/4|Gz/2G7/16G7/4(5:4z/4|Gz/2^G7/16^A7/4(5:4z/4|^d14/4z/2|
^Dz/2G7/16Gz/2F7/16|F7/8z/8^G7/8z/8^G7/8z/8G7/8z/8|^Az/2^G7/16G2-|Gz/2F7/16^D7/4(5:4z/4|
z4|z4|z2z^D7/8z/8|^D7/4z2(5:4z/4|
Cz/2C7/16C7/8z/8C7/8z/8|C7/8z/8C7/8z/8D7/4(5:4z/4|C7/4z/4B,7/4z/4|D7/4(5:4z/4G7/4z/4|
F7/4z/4^D2-|(5:4^D2z/2C7/4z/4|Cz/2C7/16B,7/4(5:4z/4|z4|
Cz/2E7/16E7/4(5:4z/4|Ez/2E7/16E7/4(5:4z/4|Ez2zz/2|(5:3EEEE7/4z/4|
Ez/2E7/16D7/4(5:4z/4|Cz/2C7/16D7/4(5:4z/4|Dz/2D7/16Ez/2D7/16|C14/4(5:4z/2|
Az/2A7/16^G7/4(5:4z/4|Gz/2G7/16^F7/4(5:4z/4|Fz/2F7/16E7/4(5:4z/4|E7/4z/4^D7/4z/4|
z2E7/4(5:4z/4|EzD7/4z/4|(5:3DCz3/4C7/8z|z4|
z4|z4|z4|z4|
z4|z4|z4|z(5:4z
L:1/8
M:1/2
K:C clef=G2
V:10
%%MIDI program 48
z4|z4|z4|z4|
z4|z4|z4|z4|
z4|z4|z4|z4|
z4|z4|z4|Gz/2G7/16Gz/2G7/16|
z2e7/4(5:4z/4|ez/2e7/16e7/4(5:4z/4|ez^g2-|^g3/4z/4g7/8z/8e7/4(5:4z/4|
^dz/2^d7/16e7/4(5:4z/4|ezB7/4z/4|(5:3dcGE7/4z/4|c7/4z2(5:4z/4|
z4|z4|z4|z4|
z4|z4|z4|z4|
z4|z4|z4|z4|
z4|z4|z4|z4|
z4|z4|z4|z4|
z4|z4|z4|z4|
z4|z4|z4|z4|
z4|z4|z4|z4|
z4|z4|z4|z4|
z4|z4|z4|z4|
z4|z4|z4|z4|
z4|z4|z4|z4|
z4|z4|z4|cz/2c7/16ez/2e7/16|
ez/2g7/16g7/4(5:4z/4|gz/2g7/16g7/4(5:4z/4|azb2-|b3/4z/4b7/8z/8a7/4(5:4z/4|
^fz/2^f7/16g7/4(5:4z/4|ez/2a7/16g7/4(5:4z/4|fedc7/4(5:4z/4|c'7/4


